X:879
T:Gathering peascods
O:Ireland
M:2/2
L:1/8
Q:1/4=
K:G
V:1
d2 |"G" B2 G2 G2 AB |"C" c3 de2 dc |"G" B2 cB "D" A3 G|
"G" G4 G2 z2   |:"G" d4 d2 "D" d2 |"G" B3 cd2 d2 |"C" e2 d2 c2 B2 |
"D" A6 B2 |"C" A2 G2 "D" G2 F2 |1 "G" G4 G2 z2 :|2 "G" G4 G2 ||
|:G2 |"D" F2 D2 F2 G2 |A4 B2 A2 |"G" GA B2 "A" A2 G2 |
"D" F6 F2 |"G" E2 D2 "A" E3 D|"D" D6  :| |:d2 |
"G" B2 G2 G2 AB |"C" c6 c2 |"G" B2 G2 G2 AB |"C" c6 dc |
"G" B2 G2 G2 AB |"C" c3 de2 dc |"G" B2 cB "D" A3 G|"G" G6 :|
